F[BALLADE
CUT[Graf und Nonne (Die Nonne)
    Ich stand auf hohem Berge]
CNR[und sah ins tiefe Tal,]
REG[Mitteleuropa, Deutschland (DDR) , Sachsen, Eisleben]
SRC[8, S. 292
    1842 aufgezeichnet]
KEY[Q0155T.16  G 2/4]
MEL[13  5_.65_4_  3__2_
    2_  3_3_4#_4#6  5__0_
    5_  +1_+1_7_7_  6__5_0_  4__3_
    5_  6_4_5_-7_  1__0_ //] >>
FCT[Ballade, Standesunterschied, vergebliche Werbung, Liebe, Klage]
CMT[Anhaengsel an der dritten Zeile.]
